X: 3
T: Yankee Doodle.
C: music: Old English Tune -- 1755
C: words: Dr.Schamburg.
%R: march
B: "The Everyday Song Book", 1927
F: http://www.library.pitt.edu/happybirthday/pdf/The_Everyday_Song_Book.pdf
Z: 2015 John Chambers <jc:trillian.mit.edu>
M: 2/4
L: 1/8
K: A
%%continueall 1
% - - - - - - - - - - - - - - - - - - - - - - - - - - - - -
E | A A B c | A c B E | A A (B c) | A2 G E | A A
w: 1.~ Fath'r and I went down to camp,     A-long with Cap-tain God-'in,  And there we
w: 2.~And there we see a thou-sand men,    As rich as Squire* Da-vid;     And what they
w: 3.~And there was Cap-tain Wash-ing-ton, Up-on a slap-ping stal-lion,   A-giv-ing
w: 4.~And then the feath-ers on his hat,   They looked so ver-y fine, ah! I want-ed
%
B c | d c B> A | G E F G | A2 Az |] "^Chorus"F> G F E | F G A z |
w: saw the men and boys As thick as has-ty pud-din'. | Yan-kee Doo-dle, keep it up,
w: wast-ed ev-'ry day,  I wish it could be sav-ed.   | *******
w: or-ders to his men,  I guess there was a mil-lion.| *******
w: pes-ki-ly to get     To give to my Je-mi-ma.      | *******
%
E> F E D | C>D Ez | F> G F E | F G A F | E A G B | A2 A |]
w: Yan-kee Doo-dle dan-*dy, Mind the mu-sic and the step, And with the girls be han-dy.
% - - - - - - - - - - - - - - - - - - - - - - - - - - - - -

%%sep 1 1 500
%%sep 1 1 500

